src/svg/it-whatsapp-square.svg

<svg width="24px" height="24px" viewBox="0 0 24 24" version="1.1"
     xmlns="http://www.w3.org/2000/svg">
  <title>Logo Whatsapp Square</title>
  <g stroke="none" stroke-width="1">
    <g>
      <rect x="0" y="0" width="24" height="24"
            fill="none"></rect>
    </g>
    <path
      d="M16,8.07 C14.4729852,6.54777586 12.1803519,6.09322555 10.1880688,6.91769399 C8.19578559,7.74216244 6.89479596,9.68386517 6.89,11.84 C6.88735721,12.8454312 7.1718408,13.8307158 7.71,14.68 L7.83,14.88 L7.3,16.88 L9.3,16.35 L9.5,16.46 C10.3191325,16.9498991 11.2555482,17.2090547 12.21,17.21 L12.21,17.21 C14.3830127,17.2256239 16.3487661,15.9228869 17.1811299,13.9155506 C18.0134936,11.9082143 17.5464348,9.59668526 16,8.07 Z M15.17,13.9 C14.9305976,14.2917921 14.5396135,14.566929 14.09,14.66 C13.7564301,14.7161007 13.4144688,14.695583 13.09,14.6 C12.86,14.52 12.56,14.42 12.18,14.26 C11.0580295,13.7097519 10.0996074,12.8754421 9.4,11.84 C9.02341578,11.3625287 8.79407362,10.7856984 8.74,10.18 C8.73384953,9.67521223 8.93649702,9.19030573 9.3,8.84 C9.40905263,8.7161272 9.5650029,8.64359218 9.73,8.64 L10,8.64 C10.1,8.64 10.23,8.64 10.36,8.91 C10.49,9.18 10.81,10.02 10.85,10.1 C10.8962267,10.1876095 10.8962267,10.2923905 10.85,10.38 C10.8087167,10.4766164 10.7549234,10.5673925 10.69,10.65 C10.61,10.75 10.52,10.86 10.45,10.93 C10.38,11 10.28,11.1 10.38,11.26 C10.6190052,11.6727564 10.9190654,12.0469888 11.27,12.37 C11.6492858,12.7108832 12.0860581,12.9817498 12.56,13.17 C12.72,13.25 12.81,13.23 12.9,13.17 C12.99,13.11 13.3,12.7 13.41,12.54 C13.52,12.38 13.62,12.4 13.77,12.46 C13.92,12.52 14.71,12.9 14.87,12.98 C15.03,13.06 15.13,13.1 15.17,13.17 C15.2267722,13.4115147 15.2163978,13.6639581 15.14,13.9 L15.17,13.9 Z"
    ></path>
    <path
      d="M21,7.09 C20.9968358,6.70503773 20.9667625,6.32076762 20.91,5.94 C20.7221478,4.85905269 20.0369191,3.92936412 19.06,3.43 C18.7426598,3.27863166 18.406263,3.17098469 18.06,3.11 C17.6796617,3.04685954 17.2954112,3.01010514 16.91,3 L7.09,3 C6.70503773,3.00316422 6.32076762,3.03323753 5.94,3.09 C4.84695218,3.29072221 3.91484424,4.0000155 3.43,5 C3.27863166,5.31734023 3.17098469,5.65373701 3.11,6 C3.04954065,6.36053745 3.01279511,6.7246524 3,7.09 C3,7.26 3,7.47 3,7.57 L3,16.43 C3,16.53 3,16.74 3,16.91 C3.00316422,17.2949623 3.03323753,17.6792324 3.09,18.06 C3.29072221,19.1530478 4.0000155,20.0851558 5,20.57 C5.31734023,20.7213683 5.65373701,20.8290153 6,20.89 C6.38387278,20.9502512 6.77147922,20.9836655 7.16,20.99 L16.98,20.99 C17.3649623,20.9868358 17.7492324,20.9567625 18.13,20.9 C19.2109473,20.7121478 20.1406359,20.0269191 20.64,19.05 C20.7913683,18.7326598 20.8990153,18.396263 20.96,18.05 C21.0202512,17.6661272 21.0536655,17.2785208 21.06,16.89 C21.06,16.72 21.06,16.51 21.06,16.41 L21.06,7.57 C21,7.47 21,7.26 21,7.09 Z M12.2,18.26 L12.2,18.26 C11.1308073,18.2600984 10.0786809,17.9919093 9.14,17.48 L5.73,18.37 L6.65,15.05 C6.08256545,14.0756876 5.78566683,12.9674962 5.79,11.84 C5.76718018,9.22236091 7.33835925,6.8538607 9.75887918,5.85704658 C12.1793991,4.86023246 14.9628423,5.43542004 16.79,7.31 C18.0024499,8.50843208 18.6802516,10.145251 18.67,11.85 C18.6673888,13.5596545 17.9829648,15.197653 16.7684367,16.4009181 C15.5539086,17.6041832 13.9096047,18.2733171 12.2,18.26 Z"
    ></path>

  </g>
</svg>

<svg xmlns="http://www.w3.org/2000/svg" viewBox="0 0 24 24"><title>it-whatsapp-square</title><g><path d="M16,8.07a5.34,5.34,0,0,0-9.11,3.77,5.28,5.28,0,0,0,.82,2.84l.12.2-.53,2,2-.53.2.11a5.29,5.29,0,0,0,2.71.75h0A5.34,5.34,0,0,0,16,8.07Zm-.83,5.83a1.66,1.66,0,0,1-1.08.76,2.23,2.23,0,0,1-1-.06c-.23-.08-.53-.18-.91-.34A7.16,7.16,0,0,1,9.4,11.84a3.13,3.13,0,0,1-.66-1.66A1.83,1.83,0,0,1,9.3,8.84a.59.59,0,0,1,.43-.2H10c.1,0,.23,0,.36.27s.45,1.11.49,1.19a.3.3,0,0,1,0,.28,1.2,1.2,0,0,1-.16.27c-.08.1-.17.21-.24.28s-.17.17-.07.33a4.73,4.73,0,0,0,.89,1.11,4.31,4.31,0,0,0,1.29.8c.16.08.25.06.34,0s.4-.47.51-.63.21-.14.36-.08.94.44,1.1.52.26.12.3.19A1.36,1.36,0,0,1,15.14,13.9Z"/><path d="M21,7.09a8.26,8.26,0,0,0-.09-1.15,3.49,3.49,0,0,0-1.85-2.51,3.89,3.89,0,0,0-1-.32A8.36,8.36,0,0,0,16.91,3H7.09a8.26,8.26,0,0,0-1.15.09A3.49,3.49,0,0,0,3.43,5a3.89,3.89,0,0,0-.32,1A8.36,8.36,0,0,0,3,7.09c0,.17,0,.38,0,.48v8.86c0,.1,0,.31,0,.48a8.26,8.26,0,0,0,.09,1.15A3.49,3.49,0,0,0,5,20.57a3.89,3.89,0,0,0,1,.32,8.36,8.36,0,0,0,1.16.1h9.82a8.26,8.26,0,0,0,1.15-.09,3.49,3.49,0,0,0,2.51-1.85,3.89,3.89,0,0,0,.32-1,8.36,8.36,0,0,0,.1-1.16c0-.17,0-.38,0-.48V7.57C21,7.47,21,7.26,21,7.09ZM12.2,18.26h0a6.39,6.39,0,0,1-3.06-.78l-3.41.89.92-3.32a6.33,6.33,0,0,1-.86-3.21,6.41,6.41,0,0,1,11-4.53,6.33,6.33,0,0,1,1.88,4.54A6.42,6.42,0,0,1,12.2,18.26Z"/></g></svg>
